X: 100
T: No_5_Song_Received_from_the_Spirit_Women.krn
N: Derived from No_5_Song_Received_from_the_Spirit_Women.krn
%%abc-version 2.0
%%abcx-abcm2ps-target-version 5.9.1 (29 Sep 2008)
%%abc-creator hum2abc beta
%%abcx-conversion-date 2019/03/15 08:35:45
%%humdrum-veritas 1657240641
%%humdrum-veritas-data 1810139462
%%linebreak <none>
%%barnumbers 0
L: 1/16
M: 3/4
K: D clef=bass
[K:clef=bass][M:3/4]z4z3 E/E/E4 | 
E8-E2B,3/E/ | 
E3D D3B,/B,/ B,3A, ||  
[M:2/4]A,8 | 
A,2 z E/E/E4 ||  
[M:3/4]D8-D2B,3/E/ | 
E3D D3B,/B,/ B,3A, ||  
[M:2/4]A,8 | 
z4B,3B, | 
A,8 | 
B,A,A,A, A,2F,F, ||  
[M:3/4]E,E,3E,4E,2E,2 | 
E,8z4 |]  



